build/img/svg/icon-eco.svg

<svg width="16" height="16" viewBox="0 0 16 16" fill="none" xmlns="http://www.w3.org/2000/svg">
<path d="M15 8.46245C14.9635 8.72246 14.9354 8.98393 14.8883 9.24211C14.6776 10.426 14.1627 11.5346 13.394 12.459C13.3006 12.5729 13.1959 12.6021 13.0984 12.5437C13.001 12.4853 12.9772 12.3867 13.0156 12.283C13.0396 12.234 13.0713 12.1891 13.1094 12.15C13.6853 11.4416 14.1105 10.651 14.3379 9.76797C14.919 7.51408 14.4817 5.47382 12.9739 3.6932C11.948 2.4808 10.6282 1.74168 9.05943 1.50212C7.04688 1.19391 5.24237 1.69676 3.69153 3.0293C2.53707 4.0215 1.82206 5.27954 1.53262 6.77422C0.929658 9.8903 2.69183 13.0323 5.66175 14.1538C6.59942 14.5138 7.6078 14.6513 8.60757 14.5555C10.0051 14.4207 11.2424 13.8956 12.3086 12.9761C12.3359 12.9523 12.3633 12.9282 12.3918 12.9056C12.5086 12.8125 12.625 12.8114 12.7071 12.9023C12.7893 12.9932 12.7801 13.1247 12.6579 13.2226C12.4024 13.4278 12.1505 13.6389 11.8801 13.8222C11.0088 14.4159 10.0104 14.7968 8.96527 14.9342C5.23434 15.4374 1.96331 12.9965 1.20559 9.63431C0.592774 6.91518 1.35524 4.58461 3.42217 2.71123C4.41604 1.81033 5.60444 1.28192 6.93337 1.08034C7.11586 1.05259 7.29836 1.02666 7.48304 1H8.52144C8.67327 1.02045 8.82511 1.03907 8.97694 1.06135C10.23 1.24394 11.3618 1.71685 12.3494 2.51258C13.7196 3.61651 14.5759 5.03232 14.8901 6.76875C14.9343 7.01305 14.9631 7.26028 14.9996 7.50641L15 8.46245Z" fill="#F6F6F6"/>
<path d="M3.70503 8.42393H12.2991V7.56393H6.44209C6.38744 7.56558 6.33275 7.56448 6.27821 7.56064C6.16178 7.54896 6.0979 7.48104 6.0917 7.36454C6.09007 7.33836 6.0936 7.31211 6.10211 7.28729C6.11062 7.26248 6.12393 7.23958 6.14128 7.21991C6.15864 7.20024 6.17969 7.18419 6.20325 7.17266C6.22681 7.16114 6.2524 7.15437 6.27857 7.15274C6.3103 7.15091 6.34211 7.15091 6.37383 7.15274H12.2337C12.5582 7.15274 12.7276 7.32328 12.7283 7.65011C12.7283 7.8915 12.7283 8.13288 12.7283 8.37427C12.7283 8.66641 12.5487 8.84571 12.2626 8.84571H3.73934C3.46085 8.84571 3.28055 8.66312 3.27836 8.38339C3.27836 8.12375 3.2758 7.86411 3.27836 7.60447C3.28128 7.33314 3.46414 7.15383 3.73606 7.1531C4.2502 7.1531 4.76472 7.1531 5.2796 7.1531C5.43472 7.1531 5.5329 7.23381 5.53509 7.35797C5.53728 7.48213 5.44165 7.5643 5.28325 7.56503C4.80876 7.56503 4.33646 7.56503 3.86271 7.56503H3.70649L3.70503 8.42393Z" fill="#F6F6F6"/>
<path d="M8.2113 10.2891V10.4352C8.2113 11.1502 8.2113 11.8653 8.2113 12.5803C8.21327 12.6303 8.21082 12.6804 8.204 12.73C8.18392 12.8421 8.11312 12.9126 7.99888 12.9126C7.88463 12.9126 7.81638 12.8396 7.79339 12.73C7.78716 12.6849 7.78532 12.6393 7.78791 12.5938V10.2895L7.76054 10.2807C7.67732 10.4177 7.59337 10.5546 7.51015 10.6916C7.4419 10.8044 7.3762 10.9187 7.30612 11.0308C7.22217 11.1652 7.1072 11.2017 6.99844 11.1331C6.88967 11.0644 6.87471 10.9468 6.95428 10.8095C7.00245 10.727 7.05209 10.6456 7.10027 10.5638C7.32803 10.1862 7.55578 9.80881 7.78353 9.4317C7.91712 9.21259 8.08209 9.21259 8.21714 9.43535C8.48869 9.88233 8.75964 10.3297 9.02997 10.7774C9.04474 10.8003 9.05827 10.8239 9.07048 10.8482C9.1256 10.9618 9.09676 11.0757 8.99931 11.1349C8.90186 11.1941 8.78579 11.1714 8.71608 11.0597C8.57775 10.8406 8.44599 10.6174 8.3113 10.3958C8.28831 10.3593 8.26349 10.3209 8.23831 10.2837L8.2113 10.2891Z" fill="#F6F6F6"/>
<path d="M10.4375 10.2808L10.0452 10.9308C10.0192 10.9735 9.99442 11.017 9.96595 11.0582C9.8904 11.166 9.78346 11.1948 9.68272 11.1364C9.58198 11.0779 9.5495 10.9574 9.61447 10.8395C9.67615 10.7281 9.74441 10.6204 9.8101 10.5108C10.0291 10.1456 10.2481 9.7779 10.4722 9.41272C10.589 9.22064 10.7613 9.21662 10.8762 9.40469C11.1636 9.87382 11.449 10.3443 11.7325 10.8161C11.811 10.9465 11.784 11.0736 11.6726 11.1364C11.5613 11.1992 11.458 11.1586 11.3759 11.0305C11.3609 11.0075 11.3478 10.9834 11.3336 10.96C11.216 10.7652 11.0981 10.5705 10.9799 10.3757C10.9593 10.337 10.9273 10.3057 10.8883 10.2859V12.5467C10.8883 12.5832 10.8883 12.6197 10.8883 12.6563C10.8824 12.8133 10.8043 12.9119 10.6817 12.9119C10.5591 12.9119 10.4671 12.8125 10.4667 12.6504C10.4667 11.9125 10.4667 11.1746 10.4667 10.4367V10.2873L10.4375 10.2808Z" fill="#F6F6F6"/>
<path d="M5.08161 10.2845L4.66735 10.9699C4.64755 11.0057 4.62586 11.0405 4.60238 11.074C4.52938 11.1704 4.41989 11.1927 4.32499 11.1339C4.27979 11.1065 4.24694 11.0626 4.23334 11.0115C4.21973 10.9603 4.22642 10.9059 4.25199 10.8596C4.28156 10.7987 4.31951 10.7413 4.35455 10.6829C4.60785 10.2622 4.86128 9.84176 5.11483 9.42156C5.23965 9.21596 5.40937 9.21523 5.53383 9.42156C5.81269 9.88023 6.09032 10.3394 6.36674 10.799C6.45397 10.9451 6.43974 11.0638 6.32732 11.1335C6.2149 11.2033 6.10176 11.1627 6.01307 11.0174C5.86379 10.7731 5.71669 10.5277 5.54478 10.2432C5.54077 10.3283 5.53712 10.3736 5.53675 10.4192C5.53675 11.1343 5.53675 11.8492 5.53675 12.5639C5.53675 12.5961 5.53675 12.6278 5.53675 12.6596C5.53164 12.8148 5.45171 12.9152 5.32908 12.9152C5.20644 12.9152 5.11373 12.8159 5.11337 12.6541C5.11191 11.916 5.11191 11.1782 5.11337 10.4408V10.2929L5.08161 10.2845Z" fill="#F6F6F6"/>
<path d="M7.75891 4.09528L7.39064 4.70659C7.35998 4.75699 7.33078 4.80884 7.29793 4.85778C7.21581 4.97938 7.10157 5.01115 6.99572 4.94396C6.89827 4.88188 6.87454 4.76137 6.94353 4.64269C7.02748 4.49661 7.1169 4.35456 7.2034 4.21068C7.39794 3.88749 7.59138 3.56394 7.78738 3.24113C7.91768 3.02603 8.08376 3.02421 8.21333 3.23711C8.49218 3.69504 8.76969 4.15383 9.04587 4.61347C9.13164 4.75553 9.11303 4.88297 9.0017 4.94725C8.89038 5.01152 8.77505 4.9677 8.68781 4.82455C8.53926 4.5817 8.39253 4.33813 8.21989 4.09893C8.2177 4.14568 8.21333 4.19242 8.21333 4.23916C8.21333 4.94932 8.21333 5.65935 8.21333 6.36926C8.21333 6.40139 8.21333 6.43316 8.21333 6.46493C8.20822 6.63073 8.12755 6.72859 7.99835 6.7264C7.86914 6.72421 7.79067 6.62452 7.7903 6.45873C7.7903 5.72106 7.7903 4.98364 7.7903 4.24647V4.10368L7.75891 4.09528Z" fill="#F6F6F6"/>
<path d="M5.07989 4.09827C4.93389 4.34367 4.7879 4.59236 4.63387 4.83264C4.59038 4.8992 4.52425 4.94772 4.44773 4.96922C4.41311 4.97062 4.37868 4.96357 4.34739 4.94869C4.31611 4.9338 4.28891 4.91152 4.26815 4.88377C4.25068 4.85104 4.24066 4.81484 4.23883 4.77778C4.237 4.74071 4.2434 4.7037 4.25757 4.66941C4.54762 4.17009 4.84484 3.6749 5.14924 3.18386C5.24888 3.02281 5.41933 3.04655 5.52956 3.22731C5.81133 3.68987 6.09115 4.15243 6.36903 4.615C6.37597 4.62668 6.38327 4.638 6.38947 4.65151C6.44823 4.76691 6.42597 4.88121 6.33107 4.94147C6.23143 5.00574 6.10807 4.97981 6.03653 4.86843C5.89783 4.64932 5.76643 4.42583 5.63139 4.20453C5.60872 4.1629 5.57533 4.1281 5.53467 4.10374V6.37882C5.53467 6.41533 5.53467 6.45185 5.53467 6.48837C5.527 6.63444 5.44561 6.72683 5.32553 6.72829C5.20544 6.72975 5.11967 6.63663 5.11164 6.49312C5.10945 6.4566 5.11164 6.42008 5.11164 6.38356V4.10521L5.07989 4.09827Z" fill="#F6F6F6"/>
<path d="M10.8883 4.10175V6.40421C10.8883 6.62332 10.8204 6.72484 10.6788 6.72557C10.5372 6.7263 10.466 6.6204 10.466 6.4075C10.466 5.6377 10.466 4.86826 10.466 4.06487C10.4266 4.11965 10.4032 4.1485 10.3839 4.1799C10.2496 4.40157 10.1182 4.62505 9.98239 4.84562C9.8999 4.97891 9.78164 5.01251 9.67251 4.9424C9.57141 4.87739 9.55206 4.75725 9.62835 4.62944C9.91133 4.15738 10.1953 3.68606 10.4802 3.21546C10.593 3.03104 10.7631 3.03104 10.8762 3.21546C11.1639 3.68484 11.449 4.15568 11.7318 4.62798C11.8084 4.75542 11.788 4.87593 11.6862 4.94094C11.5767 5.00959 11.4577 4.97417 11.3766 4.84234C11.2237 4.59474 11.0744 4.34496 10.9241 4.09591L10.8883 4.10175Z" fill="#F6F6F6"/>
</svg>

<svg width="16" height="16" fill="none" xmlns="http://www.w3.org/2000/svg"><path d="M15 8.462c-.037.26-.065.522-.112.78a6.93 6.93 0 01-1.494 3.217c-.093.114-.198.143-.296.085-.097-.059-.12-.157-.082-.261a.516.516 0 01.093-.133c.576-.708 1.002-1.499 1.229-2.382.581-2.254.144-4.294-1.364-6.075a6.23 6.23 0 00-3.915-2.19c-2.012-.31-3.817.194-5.367 1.526-1.155.992-1.87 2.25-2.16 3.745-.602 3.116 1.16 6.258 4.13 7.38.937.36 1.946.497 2.946.402a6.496 6.496 0 003.7-1.58c.028-.024.055-.048.084-.07.117-.094.233-.095.315-.004.082.091.073.223-.05.32-.255.206-.507.417-.777.6a6.736 6.736 0 01-2.915 1.112c-3.73.503-7.002-1.938-7.76-5.3-.612-2.719.15-5.05 2.217-6.923.994-.9 2.182-1.43 3.511-1.63.183-.028.365-.054.55-.081h1.038l.456.061c1.253.183 2.385.656 3.372 1.452 1.37 1.104 2.227 2.52 2.541 4.256.044.244.073.491.11.737v.956z" fill="#F6F6F6"/><path d="M3.705 8.424h8.594v-.86H6.442c-.055.002-.11 0-.164-.003-.116-.012-.18-.08-.186-.196a.2.2 0 01.187-.212.827.827 0 01.095 0h5.86c.324 0 .494.17.494.497v.724c0 .292-.18.472-.465.472H3.739c-.278 0-.458-.183-.46-.463 0-.26-.003-.519 0-.779.002-.27.185-.45.457-.45H5.28c.155 0 .253.08.255.204.002.124-.093.206-.252.207H3.706l-.001.859zm4.506 1.866v2.29c.002.05 0 .1-.007.15-.02.112-.09.183-.205.183-.114 0-.183-.073-.206-.183a.703.703 0 01-.005-.136V10.29l-.027-.01-.25.412c-.07.112-.135.227-.205.339-.084.134-.199.17-.308.102-.108-.069-.123-.186-.044-.323.048-.083.098-.164.146-.246l.684-1.132c.133-.22.298-.22.433.003a579.304 579.304 0 01.853 1.413c.056.114.027.228-.07.287-.098.06-.214.036-.284-.075-.138-.22-.27-.443-.405-.664a4.104 4.104 0 00-.073-.112l-.027.005zm2.227-.01l-.393.65c-.026.043-.05.087-.08.128-.075.108-.182.137-.282.078-.101-.058-.133-.179-.069-.296.062-.112.13-.22.196-.33.22-.364.438-.732.662-1.097.117-.192.29-.196.404-.008.288.469.573.94.857 1.411.078.13.051.258-.06.32-.112.063-.215.023-.297-.105l-.042-.071-.354-.584a.213.213 0 00-.092-.09v2.37c-.006.157-.084.256-.206.256-.123 0-.215-.1-.215-.262v-2.363l-.03-.006zm-5.356.004l-.415.686c-.02.036-.041.07-.065.104-.073.096-.182.119-.277.06a.205.205 0 01-.073-.274c.03-.061.068-.119.103-.177l.76-1.261c.125-.206.294-.207.419 0 .279.458.556.917.833 1.377.087.146.073.265-.04.335-.112.07-.225.029-.314-.117-.15-.244-.296-.49-.468-.774-.004.085-.008.13-.008.176v2.241c-.005.155-.085.255-.208.255-.123 0-.215-.1-.216-.26v-2.362l-.031-.008zm2.677-6.189l-.368.612c-.031.05-.06.102-.093.15-.082.122-.196.154-.302.087-.098-.062-.121-.183-.052-.301.083-.146.173-.288.26-.432.194-.324.387-.647.583-.97.13-.215.297-.217.426-.004.28.458.557.917.833 1.376.086.143.067.27-.044.334-.112.065-.227.02-.314-.122-.149-.243-.295-.487-.468-.726-.002.047-.007.093-.007.14v2.226c-.005.166-.085.264-.215.261-.129-.002-.207-.101-.208-.267V4.104l-.031-.009zm-2.679.003c-.146.246-.292.494-.446.735a.328.328 0 01-.186.136.214.214 0 01-.18-.085.251.251 0 01-.01-.215c.29-.499.587-.994.891-1.485.1-.161.27-.137.38.043.282.463.562.925.84 1.388.007.012.014.023.02.037.06.115.037.23-.058.29-.1.064-.223.038-.294-.074-.14-.219-.27-.442-.406-.663a.266.266 0 00-.096-.101v2.385c-.008.145-.09.238-.21.24-.12 0-.205-.092-.213-.236-.003-.036 0-.073 0-.11V4.106l-.032-.007zm5.808.004v2.302c0 .22-.068.32-.21.322-.14 0-.212-.106-.212-.319V4.066c-.04.055-.063.083-.082.115-.134.222-.266.445-.402.666-.082.133-.2.167-.31.096-.1-.065-.12-.185-.044-.313.283-.472.567-.943.852-1.414.113-.184.283-.184.396 0 .288.47.573.94.856 1.413.076.127.056.248-.046.313-.11.069-.228.033-.31-.099-.152-.247-.302-.497-.452-.746l-.036.006z" fill="#F6F6F6"/></svg>
